Suru++-Ubuntu/mimetypes/scalable/text-x-lua.svg

<svg width="256" height="256" version="1.1" viewBox="0 0 67.73 67.73" xmlns="http://www.w3.org/2000/svg" xmlns:xlink="http://www.w3.org/1999/xlink">
 <defs>
  <linearGradient id="linearGradient4226" x1="529.655" x2="-35.31" y1="401.584" y2="119.093" gradientTransform="matrix(0 -.11988932 .11988589 0 .36278005 292.5483)" gradientUnits="userSpaceOnUse">
   <stop style="stop-color:#f2f2f2" offset="0"/>
   <stop style="stop-color:#f9f9f9" offset="1"/>
  </linearGradient>
  <linearGradient id="linearGradient4358" x1="88" x2="488" y1="88" y2="488" gradientUnits="userSpaceOnUse">
   <stop style="stop-color:#000000;stop-opacity:.58823532" offset="0"/>
   <stop style="stop-color:#000000;stop-opacity:0" offset=".88"/>
   <stop style="stop-color:#000000" offset="1"/>
  </linearGradient>
  <filter id="filter4346" x="-.01" y="-.01" width="1.026" height="1.022" style="color-interpolation-filters:sRGB">
   <feGaussianBlur stdDeviation="2.12"/>
  </filter>
 </defs>
 <g transform="translate(0,-229.26665)">
  <path d="m20.705011 233.28164c-9.338925 0-10.343783 0.95922-10.298013 10.31704v38.63259c-0.04577 9.35781 0.959088 10.31704 10.298013 10.31704h25.970643c9.338924 0 10.298012-0.95912 10.298012-10.31704v-38.63259c0-9.35793-0.959088-10.31704-10.298012-10.31704z" style="fill:none;opacity:.2;stroke-width:1.0583333;stroke:#000000"/>
  <path transform="matrix(.13229167 0 0 .13229167 -4.4096684 223.75664)" d="m189.84323 74c-70.59344 0-78.18921 7.250835-77.84323 77.98706v292.02588c-0.34598 70.73623 7.24979 77.98706 77.84323 77.98706h196.31354c70.59344 0 76.00668-7.27384 77.84323-77.98706v-292.02588c0-70.737067-7.24979-77.98706-77.84323-77.98706z" style="filter:url(#filter4346);opacity:.1"/>
  <path transform="matrix(.13229167 0 0 .13229167 -4.4096684 223.75664)" d="m189.84323 74c-70.59344 0-78.18921 7.250835-77.84323 77.98706v292.02588c-0.34598 70.73623 7.24979 77.98706 77.84323 77.98706h196.31354c70.59344 0 77.84323-7.24999 77.84323-77.98706v-292.02588c0-70.737067-7.24979-77.98706-77.84323-77.98706z" style="fill:url(#linearGradient4358);filter:url(#filter4380);opacity:.3"/>
  <path d="m20.705011 233.28164c-9.338925 0-10.343783 0.95922-10.298013 10.31704v38.63259c-0.04577 9.35781 0.959088 10.31704 10.298013 10.31704h25.970643c9.338924 0 10.298012-0.95912 10.298012-10.31704v-38.63259c0-9.35793-0.959088-10.31704-10.298012-10.31704z" style="fill:url(#linearGradient4226)"/>
  <path d="m20.705079 233.28164c-9.338926 0-10.343851 0.95939-10.298081 10.3172v0.52916c-0.04577-9.35781 0.959155-10.3172 10.298081-10.3172h25.970506c9.338927 0 10.298081 0.95928 10.298081 10.3172v-0.52916c0-9.35793-0.959154-10.3172-10.298081-10.3172z" style="fill:#ffffff;opacity:.6"/>
  <g transform="matrix(.03207784 0 0 .03207784 18.498217 247.72735)" style="enable-background:new">
   <path d="m877.79366 267.4882c49.97606 98.07938 62.59148 210.98131 35.49891 317.67115-27.09241 106.68923-92.04336 199.88483-182.7408 262.21455-90.69872 62.33061-200.95464 89.54208-310.23725 76.57758-109.28081-12.96428-210.14086-65.21955-283.79463-147.01724-152.35143-169.19697-155.81021-425.03103-7.98318-598.14034 141.02019-165.13833 378.02089-206.17571 565.32557-101.95971 9.04509 5.032676 17.9743 10.404084 26.77121 16.116604" style="fill:none;stroke-dasharray:62.03784321;stroke-width:16.49633;stroke:#888888"/>
   <circle cx="473.602" cy="473.461" r="362.919" style="fill:#1a7fd4"/>
   <circle cx="622.069" cy="324.994" r="82.482" style="fill:#ffffff"/>
   <circle cx="820.024" cy="127.039" r="82.482" style="fill:#1a7fd4"/>
  </g>
  <path d="m33.690332 233.28164v59.26667h12.985253c9.338924 0 10.055122-0.96217 10.298081-10.31695v-38.63278c0-9.35792-0.959157-10.31694-10.298081-10.31694z" style="fill:#ffffff;opacity:.1"/>
  <path d="m10.406998 262.91497v19.31639c-0.04577 9.35782 0.959156 10.31695 10.298081 10.31695h25.970506c9.338924 0 10.055122-0.96217 10.298081-10.31695v-19.31639z" style="fill:#ffffff;opacity:.2"/>
  <path d="m41.098666 292.54831 15.875-15.875v5.94886c-0.01384 8.99472-1.006126 9.92614-10.100231 9.92614z" style="fill:#ffffff;opacity:.4"/>
 </g>
</svg>

<svg xmlns="http://www.w3.org/2000/svg" xmlns:xlink="http://www.w3.org/1999/xlink" width="256" height="256" version="1.1" viewBox="0 0 67.73 67.73">
 <defs>
  <linearGradient id="linearGradient4226" x1="529.655" x2="-35.31" y1="401.584" y2="119.093" gradientTransform="matrix(0,-0.11988932,0.11988589,0,0.36278005,292.5483)" gradientUnits="userSpaceOnUse" xlink:href="#linearGradient4338"/>
  <linearGradient id="linearGradient4338">
   <stop style="stop-color:#f2f2f2" offset="0"/>
   <stop style="stop-color:#f9f9f9" offset="1"/>
  </linearGradient>
  <linearGradient id="linearGradient4358" x1="88" x2="488" y1="88" y2="488" gradientUnits="userSpaceOnUse" xlink:href="#linearGradient4360"/>
  <linearGradient id="linearGradient4360">
   <stop offset="0" style="stop-color:#000000;stop-opacity:0.58823532"/>
   <stop style="stop-color:#000000;stop-opacity:0" offset=".88"/>
   <stop offset="1" style="stop-color:#000000"/>
  </linearGradient>
  <filter style="color-interpolation-filters:sRGB" id="filter4346" width="1.026" height="1.022" x="-.01" y="-.01">
   <feGaussianBlur stdDeviation="2.12"/>
  </filter>
 </defs>
 <g transform="translate(0,-229.26665)">
  <path d="m 20.705011,233.28164 c -9.338925,0 -10.343783,0.95922 -10.298013,10.31704 v 19.31629 19.3163 c -0.04577,9.35781 0.959088,10.31704 10.298013,10.31704 h 25.970643 c 9.338924,0 10.298012,-0.95912 10.298012,-10.31704 v -19.3163 -19.31629 c 0,-9.35793 -0.959088,-10.31704 -10.298012,-10.31704 z" style="opacity:0.2;fill:none;stroke:#000000;stroke-width:1.05833328"/>
  <path style="opacity:0.1;filter:url(#filter4346)" d="M 189.84323,74 C 119.24979,74 111.65402,81.250835 112,151.98706 V 298 444.01294 C 111.65402,514.74917 119.24979,522 189.84323,522 H 386.15677 C 456.75021,522 462.16345,514.72616 464,444.01294 V 298 151.98706 C 464,81.249993 456.75021,74 386.15677,74 Z" transform="matrix(0.13229167,0,0,0.13229167,-4.4096684,223.75664)"/>
  <path d="M 189.84323,74 C 119.24979,74 111.65402,81.250835 112,151.98706 V 298 444.01294 C 111.65402,514.74917 119.24979,522 189.84323,522 H 386.15677 C 456.75021,522 464,514.75001 464,444.01294 V 298 151.98706 C 464,81.249993 456.75021,74 386.15677,74 Z" transform="matrix(0.13229167,0,0,0.13229167,-4.4096684,223.75664)" style="opacity:0.3;fill:url(#linearGradient4358);filter:url(#filter4380)"/>
  <path style="fill:url(#linearGradient4226)" d="m 20.705011,233.28164 c -9.338925,0 -10.343783,0.95922 -10.298013,10.31704 v 19.31629 19.3163 c -0.04577,9.35781 0.959088,10.31704 10.298013,10.31704 h 25.970643 c 9.338924,0 10.298012,-0.95912 10.298012,-10.31704 v -19.3163 -19.31629 c 0,-9.35793 -0.959088,-10.31704 -10.298012,-10.31704 z"/>
  <path style="opacity:0.6;fill:#ffffff" d="m 20.705079,233.28164 c -9.338926,0 -10.343851,0.95939 -10.298081,10.3172 v 0.52916 c -0.04577,-9.35781 0.959155,-10.3172 10.298081,-10.3172 h 25.970506 c 9.338927,0 10.298081,0.95928 10.298081,10.3172 v -0.52916 c 0,-9.35793 -0.959154,-10.3172 -10.298081,-10.3172 z"/>
  <g style="enable-background:new" transform="matrix(0.03207784,0,0,0.03207784,18.498217,247.72735)">
   <path d="m 877.79366,267.4882 c 49.97606,98.07938 62.59148,210.98131 35.49891,317.67115 C 886.20016,691.84858 821.24921,785.04418 730.55177,847.3739 639.85305,909.70451 529.59713,936.91598 420.31452,923.95148 311.03371,910.9872 210.17366,858.73193 136.51989,776.93424 -15.83154,607.73727 -19.290316,351.90321 128.53671,178.7939 269.5569,13.655569 506.5576,-27.381806 693.86228,76.834187 c 9.04509,5.032676 17.9743,10.404084 26.77121,16.116604" style="fill:none;stroke:#888888;stroke-width:16.49633026;stroke-dasharray:62.03784321"/>
   <circle cx="473.602" cy="473.461" r="362.919" style="fill:#1a7fd4"/>
   <circle cx="622.069" cy="324.994" r="82.482" style="fill:#ffffff"/>
   <circle cx="820.024" cy="127.039" r="82.482" style="fill:#1a7fd4"/>
  </g>
  <path style="opacity:0.1;fill:#ffffff" d="m 33.690332,233.28164 v 59.26667 h 12.985253 c 9.338924,0 10.055122,-0.96217 10.298081,-10.31695 v -19.31639 -19.31639 c 0,-9.35792 -0.959157,-10.31694 -10.298081,-10.31694 z"/>
  <path style="opacity:0.2;fill:#ffffff" d="m 10.406998,262.91497 v 19.31639 c -0.04577,9.35782 0.959156,10.31695 10.298081,10.31695 h 25.970506 c 9.338924,0 10.055122,-0.96217 10.298081,-10.31695 v -19.31639 z"/>
  <path style="opacity:0.4;fill:#ffffff" d="m 41.098666,292.54831 15.875,-15.875 v 5.94886 c -0.01384,8.99472 -1.006126,9.92614 -10.100231,9.92614 z"/>
 </g>
</svg>
